!!!OTL: "Erhebung" BLENDET NICHT DEN FRISCHEN BLICK
!!!ARE: Europa, Mitteleuropa, Deutschland
!!!SCT: Z1120
!!!YEM: Copyright 1995, estate of Helmut Schaffrath.
**kern
*ICvox
*Ivox
*M4/4
*k[]
*a:
{4a
4a
4gn
4ccn
=1
8b
8a
4b
2a}
=2
{4a
4ccn
4dd
4ccn
=3
4dd
4ee
2ccn}
=4
{4ccn
4dd
4ee
4ccn
=5
4dd
8ccn
8b
2a}
=6
{4a
4a
4gn
4ccn
=7
8b
8a
4b
2a}
==
!!!AGN: religioeses Lied
!!!ONB: ESAC (Essen Associative Code) Database: ZUCCAL
!!!AMT: simple quadruple
!!!AIN: vox
!!!EED: Helmut Schaffrath
!!!EEV: 1.0
*-
